X:0
T: Away in the manger
L:1/8
M:3/4
K: D
R: Christmas
A,2 | D2D2 EF | D2 D2 FG | A2 A2 B2 | G4 EF | 
G2 G2 A2 | F2 F2 DF |[1 E2 B2 D2 | C4 :][2 E2 B,2 C2 | D4 |]

